X:1
L:1/4
Q:1/4=108
M:2/4
V:1
V:2 clef=bass
K:F
[V:1] e/4c/4B/4A/4 G/4A/4B/4c/4 | d/4B/4A/4G/4 F/4G/4A/4B/4 | c/4A/4G/4F/4 E/4F/4G/4A/4 | B/4G/4F/4E/4 D/4E/4F/4G/4 |
[V:2] E/4C/4B,/4A,/4 G,/4A,/4B,/4C/4 | D/4B,/4A,/4G,/4 F,/4G,/4A,/4B,/4 | C/4A,/4G,/4F,/4 E,/4F,/4G,/4A,/4 | B,/4G,/4F,/4E,/4 D,/4E,/4F,/4G,/4 |